X: 1
T: Dew-Drop -- Hornpipe
B: Ryan's Mammoth Collection of Fiddle Tunes
R: hornpipe
M: 2/4
L: 1/16
Z: Contributed 20000509191144 by Bob Safranek rjs:gsp.org
K: A
ue2 | "1"a"3"c'"1"a"0"e caec | A"4"ecA .E2.c2 | dfBd c"4"eAc | BEGB eefg |
      "1"a"3"c'"1"a"0"e caec | A"4"ecA .E2.c2 | dfGB c"4"eAc | BEGB A2 :|
|:ua2 | gebg egbg |a"0"e"3"c'"1"a "0"e"1"ac'a | d'bc'a "2"b"2"gaf |e^def e=dcB|
Acec a"0"e"3"c'"0"e |Bege a"0"e"3"c'"0"e |Bege b"0"e"4"d'"3"c' | \
"2"b"1"a"2"g"1"f "0"edcB |A2a2A2 :|
